X:302
T: Geistliches Minnelied
N: A0651
O: Europa, Mitteleuropa, Deutschland
N: Strassburger Hs.
R: Romanze, Ballade, Lied, religioeses Lied
M: 4/2
L: 1/4
K: D
D2D2D2 | A2A2=c2c2 | A4z2
G2 | A2=c2A3c | _B2AG=F2z
F | G2_B2A2=F2 | D2G2=F2
=C2 | D2D2G2G2 | G2=FED4 | z2

@@@ Tune index: 615
